X: 65
M:2/4
L:1/16
K:A
(ucB)|AEAc ecea|fdfa ecAc|dBfe dcBA|GABc B2 E2|
|:(uED)|C"4"AGA c"4"AGA|F"0"AEA "0"D"0"AC"4"A|FDFA dcBA|G"4"ABG E2(ED)|


